lib/logo_updates/nrk-logo-nrk-p13-title-below-on-dark.svg

<svg width="120" height="104" viewBox="0 0 120 104" fill="none" xmlns="http://www.w3.org/2000/svg">
<path d="M0 43V1.00381H13.7802V43H0ZM32.5283 7.68773L40.4532 43H25.3721L15.9092 1.00381H24.3676C26.3072 0.978642 28.1892 1.66237 29.6607 2.92636C31.1347 4.13734 32.1473 5.81844 32.5283 7.68773ZM42.5233 43V1.00381H56.3035V43H42.5233ZM66.7116 16.9743C65.2267 16.9888 63.7656 16.6003 62.4839 15.8504C61.2193 15.1194 60.1688 14.0689 59.438 12.8041C58.6872 11.5222 58.2986 10.0607 58.3134 8.57511C58.2964 7.09861 58.6853 5.64583 59.438 4.3755C60.1766 3.12447 61.2259 2.08533 62.4839 1.35882C63.766 0.609758 65.2269 0.221301 66.7116 0.234844C68.1877 0.218947 69.6399 0.607751 70.9108 1.35882C72.1562 2.09169 73.1943 3.12996 73.9271 4.3755C74.6789 5.64618 75.0677 7.09873 75.0517 8.57511C75.0655 10.0605 74.6769 11.5218 73.9271 12.8041C73.202 14.0633 72.1627 15.113 70.9108 15.8504C69.6398 16.6029 68.1866 16.9918 66.7097 16.9743H66.7116ZM77.1807 43V1.00381H90.9621V43H77.1807ZM108.408 23.9538C108.447 23.9946 108.742 24.4776 109.295 25.403C109.848 26.3283 110.567 27.5114 111.454 28.952C112.341 30.392 113.277 31.9199 114.262 33.536C115.247 35.1521 116.174 36.6803 117.043 38.1202C117.908 39.5602 118.894 41.1867 120 43H104.859C103.912 41.4621 103.055 40.0721 102.286 38.83C101.517 37.5878 100.7 36.2471 99.8334 34.8077C98.9653 33.3698 98.1071 31.9699 97.2587 30.6081C96.4103 29.2464 95.6813 28.0536 95.0714 27.0297C94.459 26.0051 94.0348 25.3149 93.7989 24.9594C93.2139 24.0771 92.8677 23.058 92.7944 22.0019C92.853 20.9883 93.1791 20.0084 93.7397 19.1619C93.9762 18.7676 94.41 18.0675 95.0409 17.062C95.6717 16.0564 96.411 14.8637 97.2587 13.4835C98.1064 12.1034 98.9647 10.6936 99.8334 9.25431C100.702 7.81501 101.519 6.46432 102.286 5.20247C103.056 3.94193 103.914 2.54205 104.859 1.00285H120L108.289 20.1082C107.926 20.6755 107.722 21.3292 107.697 22.0019C107.736 22.7081 107.983 23.3871 108.406 23.9538H108.408Z" fill="white"/>
<path d="M28.5068 66.4396C27.7796 65.3183 26.8464 64.3449 25.7566 63.5712C24.5418 62.7203 23.1923 62.0804 21.7647 61.6785C20.0317 61.2002 18.2392 60.9715 16.4417 60.9994H0V102.991H6.21005V87.9095H16.9148C19.3311 87.9469 21.7157 87.3555 23.8345 86.1933C25.8654 85.069 27.552 83.4134 28.7138 81.4038C29.9594 79.1857 30.5827 76.6723 30.5177 74.1292C30.523 72.755 30.3642 71.3849 30.0446 70.0483C29.7376 68.7679 29.2177 67.548 28.5068 66.4396ZM23.0067 79.186C22.2114 80.4327 21.0414 81.3954 19.665 81.936C17.9943 82.5682 16.2165 82.8696 14.4308 82.8232H6.21005V66.1459H15.2589C16.9873 66.0804 18.7077 66.4143 20.2861 67.1218C21.5419 67.7285 22.5686 68.7241 23.2136 69.9606C23.8971 71.3476 24.2321 72.8802 24.1895 74.4258C24.2573 76.0929 23.847 77.7446 23.0067 79.186Z" fill="#FFA90A"/>
<path d="M43.1439 62.3893C42.2962 62.8427 41.4685 63.2666 40.6608 63.6609C39.8532 64.0552 39.0348 64.4494 38.2055 64.8437C37.3781 65.238 36.5303 65.5928 35.6622 65.9082C34.7941 66.2236 33.868 66.5391 32.8836 66.8546L34.1837 71.8817C35.3665 71.5268 36.441 71.1719 37.407 70.817C38.353 70.4702 39.2809 70.0755 40.1868 69.6342C41.0746 69.2005 41.9617 68.7274 42.8481 68.2149L42.8787 68.1971V102.993H49.0286V61.0013H45.8359C44.8889 61.4718 43.9916 61.9345 43.1439 62.3893Z" fill="#FFA90A"/>
<path d="M81.2613 87.2579C80.8512 86.0772 80.2076 84.991 79.3688 84.0642C78.4972 83.1272 77.4395 82.3822 76.2637 81.8769C74.9169 81.2968 73.4923 80.9182 72.0352 80.7532V80.5748C73.8039 80.0127 75.4496 79.1196 76.8848 77.9429C78.1653 76.8929 79.2211 75.596 79.9897 74.1292C80.716 72.7215 81.0914 71.1592 81.084 69.5752C81.1104 68.2304 80.8056 66.8997 80.1967 65.7003C79.5727 64.5409 78.6806 63.5475 77.5945 62.8032C76.3314 61.9434 74.9165 61.3313 73.4249 60.9994C71.5916 60.5836 69.7158 60.3852 67.836 60.408C66.5992 60.4121 65.3641 60.5014 64.1396 60.6751C62.8722 60.8489 61.6176 61.1058 60.3839 61.444C59.1967 61.7653 58.0469 62.2113 56.9537 62.7747L57.7815 67.447C58.6483 67.0921 59.4862 66.7862 60.2951 66.5293C61.1041 66.2723 61.8829 66.0653 62.6314 65.9083C63.3799 65.7519 64.1093 65.6339 64.8197 65.5544C65.5069 65.4768 66.1979 65.4373 66.8895 65.4361C68.1408 65.4157 69.3905 65.5344 70.6155 65.79C71.5035 65.9689 72.3476 66.321 73.0996 66.826C73.7124 67.2579 74.1937 67.8513 74.4896 68.5402C74.8019 69.3199 74.9528 70.1549 74.9331 70.9946C74.95 72.1485 74.6753 73.288 74.1346 74.3075C73.5846 75.3124 72.8167 76.1814 71.8872 76.8508C70.839 77.5998 69.6681 78.1601 68.4273 78.5067C66.9846 78.9148 65.4908 79.1139 63.9916 79.0981H62.868L62.1583 83.7123H64.0508C65.796 83.6882 67.5394 83.8368 69.2554 84.1559C70.5401 84.3857 71.7724 84.8466 72.8926 85.5162C73.8087 86.0743 74.555 86.8718 75.0513 87.8228C75.5457 88.8448 75.789 89.9701 75.761 91.1051C75.7911 92.2532 75.5691 93.3939 75.1105 94.4467C74.6705 95.3802 73.9858 96.1769 73.1292 96.7523C72.1045 97.4205 70.9595 97.8826 69.7581 98.1126C68.1716 98.4305 66.5557 98.5792 64.9378 98.5563C64.3464 98.5563 63.7638 98.5374 63.1931 98.498C62.6224 98.4586 62.0193 98.3994 61.3894 98.3196C60.7595 98.2397 60.0971 98.1343 59.4081 97.9953C58.7191 97.8563 57.959 97.6907 57.131 97.4916L56.3621 102.519C57.2289 102.676 58.0668 102.824 58.8758 102.962C59.6847 103.1 60.4831 103.219 61.271 103.317C62.0596 103.414 62.8285 103.483 63.5776 103.523C64.3268 103.563 65.0562 103.583 65.7659 103.583C67.6507 103.598 69.5324 103.43 71.3844 103.08C72.9584 102.787 74.4821 102.269 75.909 101.543C77.1545 100.91 78.2761 100.059 79.2208 99.0294C80.1097 98.0401 80.7933 96.8841 81.2317 95.6286C81.7007 94.2484 81.9306 92.7983 81.9118 91.3407C81.9298 89.9526 81.7099 88.5717 81.2613 87.2579Z" fill="#FFA90A"/>
</svg>

<svg xmlns="http://www.w3.org/2000/svg" viewBox="0 0 120 104"><path fill="#fff" d="M0 43V1.004h13.78V43H0ZM32.528 7.688 40.453 43h-15.08L15.908 1.004h8.459a7.965 7.965 0 0 1 5.293 1.922 8.31 8.31 0 0 1 2.867 4.762ZM42.523 43V1.004h13.78V43h-13.78Zm24.189-26.026a8.213 8.213 0 0 1-4.228-1.124 8.336 8.336 0 0 1-3.046-3.046 8.206 8.206 0 0 1-1.125-4.229 8.056 8.056 0 0 1 1.125-4.2 8.437 8.437 0 0 1 3.046-3.016A8.232 8.232 0 0 1 66.712.235a8.083 8.083 0 0 1 4.199 1.124 8.503 8.503 0 0 1 3.016 3.016 8.075 8.075 0 0 1 1.125 4.2 8.226 8.226 0 0 1-1.125 4.23 8.4 8.4 0 0 1-3.016 3.045 8.059 8.059 0 0 1-4.201 1.124h.002ZM77.18 43V1.004h13.781V43H77.181Zm31.227-19.046c.039.04.334.524.887 1.449.553.925 1.272 2.108 2.159 3.549a1143.28 1143.28 0 0 1 5.589 9.168A854.89 854.89 0 0 0 120 43h-15.141c-.947-1.538-1.804-2.928-2.573-4.17a382.214 382.214 0 0 1-2.453-4.022 351.934 351.934 0 0 0-2.574-4.2 213.445 213.445 0 0 1-2.188-3.578 62.753 62.753 0 0 0-1.272-2.07 6.119 6.119 0 0 1-1.005-2.958 5.744 5.744 0 0 1 .946-2.84c.236-.394.67-1.095 1.3-2.1.632-1.006 1.371-2.198 2.219-3.579.847-1.38 1.706-2.79 2.574-4.229.869-1.439 1.686-2.79 2.453-4.052.77-1.26 1.628-2.66 2.573-4.2H120l-11.711 19.106a3.773 3.773 0 0 0-.592 1.894c.039.706.286 1.385.709 1.952h.002Z"/><path fill="#FFA90A" d="M28.507 66.44a10.574 10.574 0 0 0-2.75-2.869 13.187 13.187 0 0 0-3.992-1.892 18.905 18.905 0 0 0-5.323-.68H0v41.992h6.21V87.909h10.705a13.94 13.94 0 0 0 6.92-1.716 12.793 12.793 0 0 0 4.879-4.79 14.12 14.12 0 0 0 1.804-7.274 17.262 17.262 0 0 0-.473-4.08c-.307-1.281-.827-2.501-1.538-3.61Zm-5.5 12.746a6.999 6.999 0 0 1-3.342 2.75c-1.67.632-3.448.934-5.234.887H6.21V66.146h9.048a11.25 11.25 0 0 1 5.027.976 6.482 6.482 0 0 1 2.928 2.839 9.509 9.509 0 0 1 .976 4.465 8.746 8.746 0 0 1-1.183 4.76ZM43.144 62.39c-.848.453-1.675.877-2.483 1.27-.808.395-1.626.79-2.456 1.184-.827.394-1.675.749-2.543 1.064-.868.316-1.794.631-2.778.947l1.3 5.027a56.384 56.384 0 0 0 3.223-1.065 29.653 29.653 0 0 0 2.78-1.183 43.212 43.212 0 0 0 2.661-1.42l.03-.017v34.796h6.15V61.001h-3.192c-.947.47-1.844.934-2.692 1.388ZM81.261 87.258a9.313 9.313 0 0 0-1.892-3.194 9.204 9.204 0 0 0-3.105-2.187 14.937 14.937 0 0 0-4.229-1.124v-.178a14.644 14.644 0 0 0 4.85-2.632 12.336 12.336 0 0 0 3.105-3.814 9.832 9.832 0 0 0 1.094-4.554 8.204 8.204 0 0 0-.887-3.875 8.254 8.254 0 0 0-2.603-2.897A12.068 12.068 0 0 0 73.424 61a23.954 23.954 0 0 0-5.588-.591 26.956 26.956 0 0 0-3.696.267c-1.268.174-2.522.43-3.756.769a17.423 17.423 0 0 0-3.43 1.33l.828 4.673c.866-.355 1.704-.66 2.513-.918a23.463 23.463 0 0 1 4.525-.975 18.736 18.736 0 0 1 2.07-.118c1.25-.02 2.5.098 3.725.354a6.9 6.9 0 0 1 2.485 1.036 4.056 4.056 0 0 1 1.39 1.714 6.21 6.21 0 0 1 .443 2.455 6.856 6.856 0 0 1-.798 3.313 7.675 7.675 0 0 1-2.248 2.543 11.077 11.077 0 0 1-3.46 1.656 15.689 15.689 0 0 1-4.435.591h-1.124l-.71 4.614h1.893a26.47 26.47 0 0 1 5.204.444c1.285.23 2.517.69 3.638 1.36a5.894 5.894 0 0 1 2.158 2.307 7.133 7.133 0 0 1 .71 3.282 7.852 7.852 0 0 1-.65 3.342 5.71 5.71 0 0 1-1.982 2.305 9.411 9.411 0 0 1-3.37 1.36 22.886 22.886 0 0 1-4.821.444c-.592 0-1.174-.019-1.745-.058a31.84 31.84 0 0 1-1.804-.178c-.63-.08-1.292-.186-1.98-.325a63.118 63.118 0 0 1-2.278-.503l-.769 5.027c.867.157 1.705.305 2.514.443.809.138 1.607.257 2.395.355.789.097 1.557.166 2.307.206.749.04 1.478.06 2.188.06a29.012 29.012 0 0 0 5.618-.503 16.73 16.73 0 0 0 4.525-1.537 11.67 11.67 0 0 0 3.312-2.514 10.041 10.041 0 0 0 2.01-3.4c.47-1.38.7-2.83.68-4.288a12.147 12.147 0 0 0-.65-4.083Z"/></svg>
